X: 1060
T: A Theater Tune.
%R: air, waltz, jig
B: Henry Playford "Apollo's Banquet", London 1687 (5th Edition)
F: https://archive.org/details/apollosbanquetco01rugg
Z: 2017 John Chambers <jc:trillian.mit.edu>
M: 6/4
L: 1/8
K: D
% - - - - - - - - - -
|:\
a2f2g2 e4a2 | d4e2 e4A2 | a2f2b2 g2f3g | e4d2 d4d2 ::\
e2c2d2 B2e4 | c4d2 B4A2 | d2c2B2 g2f4 | ^d4ef f4e2 |
a2f2g2 e4a2 | d4e2 e4A2 | a2f2b2 g2f3g | e4d2 d4d2 |\
A2F2A2 B4c2 | d4e2 c3de2 | f2B2e2 c2d4 | B4A2 A4HA2 |]
% - - - - - - - - - -

%%sep 1 1 500
%%sep 1 1 500

